X:26
T:The Wearing of the Green
% Four-part piano arrangement for standard notation.
C:Words by Dion Boucicault
S:From "The One Hundred and One Best Songs" / The Cable Company / 1919 / Chicago, Illinois
M:2/4
L:1/8
Q:1/4=110
%%staves [(1 2) (3 4)]
%%vocalfont Times-Roman 13
K:F
V:1 clef=treble
"^Moderato"F/G/ | A A A A | A c c A | A G G G | G2 z c |
w:1.~~~~O* Pad-dy dear, and did you hear the news that's go-ing round? The
w:2.~Then* since the col-or we must wear is Eng-land's cru-el red, Sure
w:3.~But* if at last our col-or should be torn from Ire-land's heart, Her
V:2 clef=treble
F/E/ | F F F F | F F F F | F E E E | E2 z E |
V:3 clef=bass
%%MIDI transpose -24
a/b/ | c' c' c' c' | c' a a c' | c' c' c' c' | c'2 z g |
V:4 clef=bass
%%MIDI transpose -24
f | f f f f | f f f f | c c c c | c2 z c |
V:1
d B f d | d c A F | G F F F | F2 (F G) | A A A A |
w:Sham-rock is for-bid by law to grow on I-rish ground; Saint* Pat-rick's Day no
w:Ire-land's sons will ne'er for-get the blood that they have shed. You may take the Sham-rock
w:sons with same and sor-row from the dear old soil will part.  I've heard whis-per of a
V:2
F F F F | F F F C | C C C C | C2 (C E) | F F F F |
V:3
b d' d' b | b a c' a | b a a a | a2 (a c') | c' c' c' c' |
V:4
B b b b | f f f f | c f f f | f2 (f c) | f f f f |
V:1
A c c A | A G G G | G2 z c | d B f d | d c A F |
w:more we'll keep, his col-or can't be seen, For there's a blood-y law a-gin' the
w:from your hat, and cast it on the sod, But 'twill take root and flour-ish still, tho'
w:coun-try that lies far be-yant the say, Where rich and poor stand e-qual in the
V:2
F F F F | F E E E | E2 z F | F F F F | F F F C |
V:3
c' a a c' | c' c' c' c' | c'2 z a | b d' d' b | b a c' a |
V:4
f f f f | c c c c | c2 z f | B b b b | f f f f |
V:1
G F F F | F2 (f e) | d d c A | c c F G | A G A B |
w:wear-in' o' the green. I* met with Nap-per Tan-dy, and he tuk me by the
w:un-der-foot 'tis trod. When the law can stop the blades of grass from grow-ing as they
w:light of free-dom's day. O* E-rin, we must lave you, driv-en by the ty-rant's
V:2
C C C C | C2 (F F) | F F F F | F F C E | F E F G |
V:3
b a a a | a2 (a c') | b b a c' | a a a c' | c' c' c' c' |
V:4
c f f f | f2 (f f) | f f f f | f f f c | f f f f |
V:1
A2 (f e) | d d c A | c - c F A | (G F) E D |
w:hand, And he said, "How's poor ould Ire\-* land, and how* does she
w:grow, And* when the leaves in sum-mer-time their ver-dure dare not
w:hand, Must we ask a moth-er's wel-come from a strange but hap-py
V:2
F2 F- F | F F F F | F- F C F | D-D =B, =B, |
V:3
c'2 c'- c' | b b a c' | a- a a c' | =b- =b g f |
V:4
f2 a- a | b b f f | f- f f f | g g G G |
V:1
C2 (F G) | A A A A | A c- c A | A G G G |
w:stand?" She's the most dis-tress-ful coun-try* that ev-er you have
w:show, Then* I will change the col-or* I wear in my cau-
w:land; Where the cru-el cross of Eng-land's tharll-dom nev-er shall be
V:2
C2 (C E) | F F F F | F F- F F | F E E E |
V:3
e2 (a c') | c' c' c' c' | c' a- a c' | c' c' c' c' |
V:4
c2 (f c) | f f f f | f f- f f | c c c c |
V:1
G2 z c | d B Hf d | d c HA F | G F F > F | F3 |]
w:seen; They're hang-ing men and wom-en there for wear-ing of the green.
w:been, But, till that day, I'll stick for aye to wear-ing of the green.
w:seen, And where, in peace, we'll live and die a-wear-ing of the green?
V:2
E2 z F | F F HF F | F F HF C | C C C > C | C3 |]
V:3
c'2 z a | b d' Hd' b | b a Hc' a | b a a > a | a3 |]
V:4
c2 z f | B b Hb b | f f Hf f | c f f > f | f3 |]

